images_breeze_svg/cmd/lc_renamemasterpage.svg

<svg viewBox="0 0 24 24" xmlns="http://www.w3.org/2000/svg"><path d="m3.9980469 4.9941406v1 9.0000004h.0117187l-.0117187.011718 3.9921875 3.992188h.0117187l6.9980469.001953v-1l-6.0039062-.001953v-4h-4v-8.0000001h14.0000002l.003906 5.0019531h1l.001953-6.0019531h-.003906v-.0039063zm12.0019531 7.0058594v1h2v6h-2v1h5v-1h-2v-6h2v-1z" fill="#1d99f3"/></svg>

<?xml version="1.0" encoding="UTF-8" standalone="no"?>
<svg
   xmlns:dc="http://purl.org/dc/elements/1.1/"
   xmlns:cc="http://creativecommons.org/ns#"
   xmlns:rdf="http://www.w3.org/1999/02/22-rdf-syntax-ns#"
   xmlns:svg="http://www.w3.org/2000/svg"
   xmlns="http://www.w3.org/2000/svg"
   xmlns:sodipodi="http://sodipodi.sourceforge.net/DTD/sodipodi-0.dtd"
   xmlns:inkscape="http://www.inkscape.org/namespaces/inkscape"
   viewBox="0 0 24 24"
   version="1.1"
   id="svg4"
   sodipodi:docname="lc_renamemasterpage.svg"
   inkscape:version="0.92.4 (unknown)"
   inkscape:export-filename="/home/rizmut/Dokumen/Rizmut/Github/libreoffice-style-breeze/images_breeze/cmd/lc_renamemasterpage.png"
   inkscape:export-xdpi="96"
   inkscape:export-ydpi="96">
  <metadata
     id="metadata10">
    <rdf:RDF>
      <cc:Work
         rdf:about="">
        <dc:format>image/svg+xml</dc:format>
        <dc:type
           rdf:resource="http://purl.org/dc/dcmitype/StillImage" />
        <dc:title></dc:title>
      </cc:Work>
    </rdf:RDF>
  </metadata>
  <defs
     id="defs8" />
  <sodipodi:namedview
     pagecolor="#ffffff"
     bordercolor="#666666"
     borderopacity="1"
     objecttolerance="10"
     gridtolerance="10"
     guidetolerance="10"
     inkscape:pageopacity="0"
     inkscape:pageshadow="2"
     inkscape:window-width="1360"
     inkscape:window-height="714"
     id="namedview6"
     showgrid="true"
     inkscape:zoom="13.906433"
     inkscape:cx="3.0449612"
     inkscape:cy="5.3070622"
     inkscape:window-x="0"
     inkscape:window-y="28"
     inkscape:window-maximized="1"
     inkscape:current-layer="svg4">
    <inkscape:grid
       type="xygrid"
       id="grid817" />
  </sodipodi:namedview>
  <path
     style="fill:#1d99f3;stroke:none"
     d="M 3.9980469 4.9941406 L 3.9980469 5.9941406 L 3.9980469 14.994141 L 4.0097656 14.994141 L 3.9980469 15.005859 L 7.9902344 18.998047 L 8.0019531 18.998047 L 15 19 L 15 18 L 8.9960938 17.998047 L 8.9960938 13.998047 L 4.9960938 13.998047 L 4.9960938 5.9980469 L 18.996094 5.9980469 L 19 11 L 20 11 L 20.001953 4.9980469 L 19.998047 4.9980469 L 19.998047 4.9941406 L 3.9980469 4.9941406 z M 16 12 L 16 13 L 18 13 L 18 19 L 16 19 L 16 20 L 21 20 L 21 19 L 19 19 L 19 13 L 21 13 L 21 12 L 16 12 z "
     id="path2" />
</svg>
